!!!OTL: 1888. Jm Sommer. / [Kinderreigen.]
!!!ODT: 1858
!!!ARE: Europa, Mitteleuropa, Deutschland, Erfurt, Stotternheim
!!!SCT: E1888
!!!TXL: @@DE
!!!YEM: Copyright 1995, estate of Helmut Schaffrath.
**kern	**text
*ICvox	*
*M2/4	*
*k[f#]	*
*G:	*
!LO:TX:a:t=Stotternheim bei Erfurt 1858.	!
{8g	Jm
=1	=1
4dd	Som-
8b	-mer,
8g	im
=2	=2
4dd	Som-
8b}	-mer,
{8g	du
=3	=3
8ee	ſchö-
8ee	-ne
8ee	Som-
8ee	-mer-
=4	=4
4dd	-ʒeit.
8r}	.
{8dd	Warum
=5	=5
8dd	ſollt
8cc	man
8cc	da
8cc	nicht
=6	=6
8b	lu-
8b	-ſtig
8b}	ſein,
{8b	ihr
=7	=7
8a	lie-
8a	-ben
8a	jun-
8a	-gen
=8	=8
4dd	Leut,
8r}	.
{8dd	Warum
=9	=9
8dd	ſollt
8cc	man
8cc	da
8cc	nicht
=10	=10
8b	lu-
8b	-ſtig
8b}	ſein,
{8b	ihr
=11	=11
8a	lie-
8a	-ben
8dd	jun-
8dd	-gen
=12	=12
4g	Leut?
8r}	.
==	==
!!!AGN: Kinder - Lied, Spiel, Reigen
!!!ONB: ESAC (Essen Associative Code) Database: ERK3
!!!AMT: simple duple
!!!AIN: vox
!!!EED: Helmut Schaffrath
!!!EEV: 1.0
!!!GTL: Einige Kinderlieder. d) Spiel- und Tanzliedchen.
!!!URL-scan: https://rosdok.uni-rostock.de/mcrviewer/recordIdentifier/rosdok_ppn745177999/iview2/phys_0614.iview2?x=187.54249976177994&y=516.7618383918889&scale=0.7014306698522895&rotation=0&layout=singlePageLayout
!!!ENC: Anna Maria Matuszewska
!!!EEV: 2025/09/01
*-	*-
